X: 105
T:Virginia, The
R:reel
D:Dervish: Harmony Hill
Z:id:hn-reel-256
M:C|
K:D
DBBA ~B3A|BAdB AFEF|DF~F2 ~A3B|AFBF AFEF|
DBBA ~B3A|BAdB ABde|~f3e defe|dBAF BE~E2:|
|:defe d2dA|BAFA dAFA|defe defg|afbf afeg|
f2df efdB|AF~F2 ABde|~f3e defe|dBAF BE~E2:|
"Variations:"
~B3A B3A|BAdB AFEF|DF~F2 AF~F2|DF~F2 AFEF|
DBBA B2BA|B2dB ABde|~f3e defe|dBAF BE~E2:|
|:defe d2dA|BAFA dAFA|f2fe defg|a2bf afeg|
~f3e d2dB|AF~F2 ABde|~f3e defe|dBAF BE~E2:|

